flags/et-ga.svg

<svg width="512" height="512" viewBox="0 0 512 512" fill="none" xmlns="http://www.w3.org/2000/svg">
<path d="M0 384L256 320L512 384V512H0V384Z" fill="var(--flag-palette-black, #333333)"/>
<path d="M0 256L256 192L512 256V384H0V256Z" fill="var(--flag-palette-dark-green, #496e2d)"/>
<path d="M0 128L256 64L512 128V256H0V128Z" fill="var(--flag-palette-white, #eeeeee)"/>
<rect width="512" height="128" fill="var(--flag-palette-bright-red, #d80027)"/>
<path d="M256 134.111L270.369 178.334H316.868L279.25 205.666L293.619 249.888L256 222.557L218.382 249.888L232.751 205.666L195.133 178.334H241.632L256 134.111Z" fill="var(--flag-palette-black, #333333)"/>
</svg>

<svg xmlns="http://www.w3.org/2000/svg" width="512" height="512" fill="none"><path fill="var(--flag-palette-black, #333333)" d="m0 384 256-64 256 64v128H0z"/><path fill="var(--flag-palette-dark-green, #496e2d)" d="m0 256 256-64 256 64v128H0z"/><path fill="var(--flag-palette-white, #eeeeee)" d="m0 128 256-64 256 64v128H0z"/><path fill="var(--flag-palette-bright-red, #d80027)" d="M0 0h512v128H0z"/><path fill="var(--flag-palette-black, #333333)" d="m256 134.1 14.4 44.2h46.5l-37.6 27.4 14.3 44.2-37.6-27.3-37.6 27.3 14.4-44.2-37.7-27.4h46.5z"/></svg>
